build/images/page-6/advantages/advantages-bg-mobile.svg

<svg width="579" height="405" viewBox="0 0 579 405" fill="none" xmlns="http://www.w3.org/2000/svg"><circle opacity=".05" cx="286.098" cy="208.89" r="136.973" fill="#00A79E"/><circle opacity=".05" cx="286.098" cy="208.89" r="166.712" fill="#00A79E"/><circle opacity=".05" cx="286.099" cy="208.89" r="90.076" fill="#00A79E"/><path opacity=".09" d="M113.162 147.409c.332-1.071.505-2.214.505-3.385 0-6.442-5.279-11.669-11.785-11.669-.822 0-1.63.085-2.423.242-2.163-7.641-9.246-13.24-17.655-13.24-1.24 0-2.452.128-3.62.357-4.025-8.956-13.083-15.198-23.613-15.198-14.265 0-25.834 11.455-25.834 25.582 0 .885.044 1.757.13 2.614a11.655 11.655 0 00-2.928-.372c-6.505 0-11.785 5.228-11.785 11.67 0 1.171.174 2.314.505 3.385h98.503v.014zM35.664 347.578a7.975 7.975 0 01-.349-2.347c0-4.466 3.641-8.091 8.128-8.091.567 0 1.124.06 1.67.169a12.637 12.637 0 0112.177-9.181 12.9 12.9 0 012.497.248 17.824 17.824 0 0116.284-10.537c9.839 0 17.817 7.942 17.817 17.737 0 .614-.03 1.218-.09 1.812a7.974 7.974 0 012.02-.258c4.486 0 8.127 3.625 8.127 8.091 0 .812-.12 1.605-.348 2.347H35.664v.01zm392.095 41.75a16.209 16.209 0 01-.685-4.694c0-8.933 7.161-16.182 15.984-16.182 1.115 0 2.211.119 3.287.336 2.934-10.596 12.54-18.36 23.946-18.36 1.682 0 3.326.178 4.91.495 5.459-12.419 17.745-21.074 32.026-21.074 19.349 0 35.039 15.885 35.039 35.473a36.67 36.67 0 01-.176 3.625 15.482 15.482 0 013.972-.515c8.823 0 15.983 7.249 15.983 16.182 0 1.624-.234 3.208-.684 4.694H427.759v.02z" fill="#00A79E"/><g opacity=".79"><path opacity=".22" d="M447.993 145.802c31.822 2.648 63.993-25.231 71.857-62.268 7.863-37.038-11.558-69.21-43.38-71.857-31.821-2.647-63.992 25.231-71.856 62.269-7.864 37.038 11.558 69.209 43.379 71.856z" fill="#00A79E"/><path opacity=".22" d="M464.953 53.444c5.829.484 11.722-4.622 13.162-11.407 1.441-6.784-2.117-12.677-7.946-13.162-5.828-.485-11.721 4.622-13.162 11.406-1.44 6.785 2.117 12.678 7.946 13.163z" fill="#00A79E"/><path opacity=".1" d="M475.509 98.708c8.483.706 17.059-6.726 19.155-16.6 2.096-9.872-3.081-18.448-11.564-19.154-8.482-.706-17.058 6.726-19.154 16.6-2.097 9.872 3.081 18.448 11.563 19.154zm29.901-31.542c2.422.201 4.871-1.92 5.469-4.74.599-2.818-.88-5.267-3.302-5.468-2.422-.202-4.871 1.92-5.469 4.739-.599 2.819.88 5.267 3.302 5.469z" fill="#00A79E"/><path opacity=".39" d="M525.663 72.035c23.803 13.109 37.692 27.16 34.417 37.224-5.247 16.06-52.276 15.899-105.048-.399-52.772-16.299-91.288-42.533-86.041-58.593 3.069-9.385 20.414-13.24 44.837-11.56" stroke="#00A79E" stroke-width="2.133" stroke-miterlimit="10" stroke-linecap="round" stroke-linejoin="round"/></g><path d="M402.693 146.838v6.13m3.066-3.065h-6.137m146.615 153.066v6.131m3.071-3.065h-6.136m-177.087 22.098v6.131m3.071-3.065h-6.136M329.483 47.897v6.13m3.072-3.065h-6.137m-41.544 34.681v6.137m3.065-3.066h-6.13M140.85 35.315v6.13m3.071-3.065h-6.137m402.74 86.153v6.131m3.066-3.066h-6.137M94.999 63.338v6.137m3.065-3.071h-6.13m463.454 166.22v6.131m3.065-3.065h-6.131M414.126 1v6.13m3.065-3.065h-6.13M66.976 1v6.13m3.065-3.065h-6.13m417.157 114.349v6.13m3.066-3.065h-6.131M44.67 209.748v6.136m3.066-3.065h-6.13M4.065 284.096v6.137m3.065-3.066H1m188.365 30.672v6.137m3.066-3.066H186.3m-63.277 44.969v6.131m3.072-3.065h-6.137m-99.308-3.066v6.131m3.072-3.065h-6.137m379.955 28.389v6.131m3.065-3.065h-6.13m-91.3-396.54v6.13m3.071-3.065h-6.137" stroke="#00A99E" stroke-width="2" stroke-miterlimit="10" stroke-linecap="round" stroke-linejoin="round"/></svg>

<svg width="579" height="405" viewBox="0 0 579 405" fill="none" xmlns="http://www.w3.org/2000/svg"><circle opacity=".05" cx="286.098" cy="208.89" r="136.973" fill="#00A79E"/><circle opacity=".05" cx="286.098" cy="208.89" r="166.712" fill="#00A79E"/><circle opacity=".05" cx="286.099" cy="208.89" r="90.076" fill="#00A79E"/><path opacity=".09" d="M113.162 147.409c.332-1.071.505-2.214.505-3.385 0-6.442-5.279-11.669-11.785-11.669-.822 0-1.63.085-2.423.242-2.163-7.641-9.246-13.24-17.655-13.24-1.24 0-2.452.128-3.62.357-4.025-8.956-13.083-15.198-23.613-15.198-14.265 0-25.834 11.455-25.834 25.582 0 .885.044 1.757.13 2.614a11.655 11.655 0 00-2.928-.372c-6.505 0-11.785 5.228-11.785 11.67 0 1.171.174 2.314.505 3.385h98.503v.014zM35.664 347.578a7.975 7.975 0 01-.349-2.347c0-4.466 3.641-8.091 8.128-8.091.567 0 1.124.06 1.67.169a12.637 12.637 0 0112.177-9.181c.855 0 1.691.089 2.497.248a17.824 17.824 0 0116.284-10.537c9.839 0 17.817 7.942 17.817 17.737 0 .614-.03 1.218-.09 1.812a7.974 7.974 0 012.02-.258c4.486 0 8.127 3.625 8.127 8.091 0 .812-.12 1.605-.348 2.347H35.664v.01zM427.759 389.328a16.209 16.209 0 01-.685-4.694c0-8.933 7.161-16.182 15.984-16.182 1.115 0 2.211.119 3.287.336 2.934-10.596 12.54-18.36 23.946-18.36 1.682 0 3.326.178 4.91.495 5.459-12.419 17.745-21.074 32.026-21.074 19.349 0 35.039 15.885 35.039 35.473a36.67 36.67 0 01-.176 3.625 15.482 15.482 0 013.972-.515c8.823 0 15.983 7.249 15.983 16.182 0 1.624-.234 3.208-.684 4.694H427.759v.02z" fill="#00A79E"/><g opacity=".79"><path opacity=".22" d="M447.993 145.802c31.822 2.648 63.993-25.231 71.857-62.268 7.863-37.038-11.558-69.21-43.38-71.857-31.821-2.647-63.992 25.231-71.856 62.269-7.864 37.038 11.558 69.209 43.379 71.856z" fill="#00A79E"/><path opacity=".22" d="M464.953 53.444c5.829.484 11.722-4.622 13.162-11.407 1.441-6.784-2.117-12.677-7.946-13.162-5.828-.485-11.721 4.622-13.162 11.406-1.44 6.785 2.117 12.678 7.946 13.163z" fill="#00A79E"/><path opacity=".1" d="M475.509 98.708c8.483.706 17.059-6.726 19.155-16.6 2.096-9.872-3.081-18.448-11.564-19.154-8.482-.706-17.058 6.726-19.154 16.6-2.097 9.872 3.081 18.448 11.563 19.154zM505.41 67.166c2.422.201 4.871-1.92 5.469-4.74.599-2.818-.88-5.267-3.302-5.468-2.422-.202-4.871 1.92-5.469 4.739-.599 2.819.88 5.267 3.302 5.469z" fill="#00A79E"/><path opacity=".39" d="M525.663 72.035c23.803 13.109 37.692 27.16 34.417 37.224-5.247 16.06-52.276 15.899-105.048-.399-52.772-16.299-91.288-42.533-86.041-58.593 3.069-9.385 20.414-13.24 44.837-11.56" stroke="#00A79E" stroke-width="2.133" stroke-miterlimit="10" stroke-linecap="round" stroke-linejoin="round"/></g><path d="M402.693 146.838v6.13M405.759 149.903h-6.137M546.237 302.969v6.131M549.308 306.035h-6.136M366.085 328.133v6.131M369.156 331.199h-6.136M329.483 47.897v6.13M332.555 50.962h-6.137M284.874 85.643v6.137M287.939 88.714h-6.13M140.85 35.315v6.13M143.921 38.38h-6.137M540.524 124.533v6.131M543.59 127.598h-6.137M94.999 63.338v6.137M98.064 66.404h-6.13M555.388 232.624v6.131M558.453 235.69h-6.131M414.126 1v6.13M417.191 4.065h-6.13M66.976 1v6.13M70.041 4.065h-6.13M481.068 118.414v6.13M484.134 121.479h-6.131M44.67 209.748v6.136M47.736 212.819h-6.13M4.065 284.096v6.137M7.13 287.167H1M189.365 317.839v6.137M192.431 320.91H186.3M123.023 365.879v6.131M126.095 368.945h-6.137M20.65 365.879v6.131M23.722 368.945h-6.137M397.54 397.334v6.131M400.605 400.4h-6.13M303.175 3.86v6.13M306.246 6.925h-6.137" stroke="#00A99E" stroke-width="2" stroke-miterlimit="10" stroke-linecap="round" stroke-linejoin="round"/></svg>
